Unicodia/Resources/Scripts/0840.svg

<?xml version="1.0" encoding="UTF-8" standalone="no"?>
<!-- Created with Inkscape (http://www.inkscape.org/) -->

<svg
   width="16"
   height="16"
   viewBox="0 0 16 16"
   version="1.1"
   id="svg5"
   inkscape:version="1.2.1 (9c6d41e410, 2022-07-14)"
   sodipodi:docname="0840.svg"
   inkscape:export-filename="..\0000.png"
   inkscape:export-xdpi="96"
   inkscape:export-ydpi="96"
   xmlns:inkscape="http://www.inkscape.org/namespaces/inkscape"
   xmlns:sodipodi="http://sodipodi.sourceforge.net/DTD/sodipodi-0.dtd"
   xmlns="http://www.w3.org/2000/svg"
   xmlns:svg="http://www.w3.org/2000/svg">
  <sodipodi:namedview
     id="namedview7"
     pagecolor="#ffffff"
     bordercolor="#666666"
     borderopacity="1.0"
     inkscape:pageshadow="2"
     inkscape:pageopacity="0"
     inkscape:pagecheckerboard="0"
     inkscape:document-units="px"
     showgrid="true"
     width="16mm"
     units="px"
     inkscape:zoom="32"
     inkscape:cx="11.671875"
     inkscape:cy="11.25"
     inkscape:window-width="1680"
     inkscape:window-height="998"
     inkscape:window-x="-8"
     inkscape:window-y="-8"
     inkscape:window-maximized="1"
     inkscape:current-layer="layer1"
     showguides="true"
     inkscape:guide-bbox="true"
     inkscape:snap-bbox="true"
     inkscape:bbox-paths="true"
     inkscape:bbox-nodes="true"
     inkscape:snap-global="true"
     inkscape:showpageshadow="2"
     inkscape:deskcolor="#ffffff">
    <inkscape:grid
       type="xygrid"
       id="grid828"
       originx="0"
       originy="0" />
  </sodipodi:namedview>
  <defs
     id="defs2" />
  <g
     inkscape:label="Layer 1"
     inkscape:groupmode="layer"
     id="layer1">
    <rect
       style="opacity:1;fill:#ffff83;stroke:none;stroke-width:4.4376;stroke-linejoin:bevel;stop-color:#000000;fill-opacity:1"
       id="rect691"
       width="16"
       height="16"
       x="0"
       y="0" />
    <path
       d="m 10.326686,7.3190186 q 0.438652,0.584872 0.438652,1.3496927 0,1.3834347 -0.78451,2.0161057 -0.7845087,0.632668 -1.9654915,0.632668 H 0.5076677 v -1.282209 h 7.5076688 q 0.8098163,0 1.1556758,-0.3964722 0.3458584,-0.3964729 0.3458584,-0.9616569 0,-0.5651831 -0.3289871,-0.9616559 Q 8.8588955,7.3190186 8.0828214,7.3190186 H 3.0046003 V 6.3911043 Q 3.3842014,6.2013037 4.2699377,5.4631902 L 7.4079746,2.9156441 8.2009195,3.6917178 6.7668703,4.8895706 Q 6.0958618,5.4647221 4.9447842,6.0705522 H 13.751534 V 3 H 15 V 14 H 13.751534 V 7.3190186 Z"
       id="path602"
       style="fill:#f57900;stroke-width:0.0168711" />
  </g>
</svg>

<svg height="16" viewBox="0 0 16 16" width="16" xmlns="http://www.w3.org/2000/svg"><path d="m0 0h16v16h-16z" fill="#ffff83"/><path d="m10.33 7.32q.44.58.44 1.35 0 1.38-.78 2.02-.78.63-1.97.63h-7.51v-1.28h7.51q.81 0 1.16-.4.35-.4.35-.96 0-.57-.33-.96-.34-.4-1.12-.4h-5.08v-.93q.38-.19 1.27-.93l3.14-2.54.79.77-1.43 1.2q-.67.57-1.83 1.18h8.81v-3.07h1.25v11h-1.25v-6.68z" fill="#f57900" stroke-width=".02"/></svg>
